test-data/inkscape/concentric-polygons/concentric-polygons.svg

<?xml version="1.0" encoding="UTF-8" standalone="no"?>
<!-- Created with Inkscape (http://www.inkscape.org/) -->

<svg
   xmlns:dc="http://purl.org/dc/elements/1.1/"
   xmlns:cc="http://creativecommons.org/ns#"
   xmlns:rdf="http://www.w3.org/1999/02/22-rdf-syntax-ns#"
   xmlns:svg="http://www.w3.org/2000/svg"
   xmlns="http://www.w3.org/2000/svg"
   xmlns:sodipodi="http://sodipodi.sourceforge.net/DTD/sodipodi-0.dtd"
   xmlns:inkscape="http://www.inkscape.org/namespaces/inkscape"
   width="36in"
   height="24in"
   id="svg3930"
   version="1.1"
   inkscape:version="0.48.0 r9654"
   sodipodi:docname="concentric-polygons.svg">
  <defs
     id="defs3" />
  <sodipodi:namedview
     id="base"
     pagecolor="#ffffff"
     bordercolor="#666666"
     borderopacity="1.0"
     inkscape:pageopacity="0.0"
     inkscape:pageshadow="2"
     inkscape:zoom="1.9954665"
     inkscape:cx="76.298918"
     inkscape:cy="2000"
     inkscape:window-width="1183"
     inkscape:window-height="850"
     inkscape:document-units="mm"
     inkscape:current-layer="layer1"
     showgrid="false"
     inkscape:window-x="0"
     inkscape:window-y="0"
     inkscape:window-maximized="0" />
  <metadata
     id="metadata3934">
    <rdf:RDF>
      <cc:Work
         rdf:about="">
        <dc:format>image/svg+xml</dc:format>
        <dc:type
           rdf:resource="http://purl.org/dc/dcmitype/StillImage" />
        <dc:title />
      </cc:Work>
    </rdf:RDF>
  </metadata>
  <g
     inkscape:label="Layer 1"
     inkscape:groupmode="layer"
     id="layer1">
    <path
       id="path4127"
       style="fill:none;stroke:#000000;stroke-width:0.08858268;stroke-linecap:round;stroke-linejoin:round;stroke-miterlimit:10;stroke-opacity:1;stroke-dasharray:none"
       d="m 17.507787,176.80119 59.70468,50.09532"
       inkscape:connector-curvature="0" />
    <path
       id="path4129"
       style="fill:none;stroke:#000000;stroke-width:0.08858268;stroke-linecap:round;stroke-linejoin:round;stroke-miterlimit:10;stroke-opacity:1;stroke-dasharray:none"
       d="m 3.975027,100.04379 13.53276,76.7574"
       inkscape:connector-curvature="0" />
    <path
       id="path4131"
       style="fill:none;stroke:#000000;stroke-width:0.08858268;stroke-linecap:round;stroke-linejoin:round;stroke-miterlimit:10;stroke-opacity:1;stroke-dasharray:none"
       d="m 42.942147,32.54379 -38.96712,67.5"
       inkscape:connector-curvature="0" />
    <path
       id="path4133"
       style="fill:none;stroke:#000000;stroke-width:0.08858268;stroke-linecap:round;stroke-linejoin:round;stroke-miterlimit:10;stroke-opacity:1;stroke-dasharray:none"
       d="m 116.18487,5.88579 -73.242723,26.658"
       inkscape:connector-curvature="0" />
    <path
       id="path4135"
       style="fill:none;stroke:#000000;stroke-width:0.08858268;stroke-linecap:round;stroke-linejoin:round;stroke-miterlimit:10;stroke-opacity:1;stroke-dasharray:none"
       d="m 189.42207,32.54379 -73.2372,-26.658"
       inkscape:connector-curvature="0" />
    <path
       id="path4137"
       style="fill:none;stroke:#000000;stroke-width:0.08858268;stroke-linecap:round;stroke-linejoin:round;stroke-miterlimit:10;stroke-opacity:1;stroke-dasharray:none"
       d="m 228.39327,100.04379 -38.9712,-67.5"
       inkscape:connector-curvature="0" />
    <path
       id="path4139"
       style="fill:none;stroke:#000000;stroke-width:0.08858268;stroke-linecap:round;stroke-linejoin:round;stroke-miterlimit:10;stroke-opacity:1;stroke-dasharray:none"
       d="m 214.86087,176.80119 13.5324,-76.7574"
       inkscape:connector-curvature="0" />
    <path
       id="path4141"
       style="fill:none;stroke:#000000;stroke-width:0.08858268;stroke-linecap:round;stroke-linejoin:round;stroke-miterlimit:10;stroke-opacity:1;stroke-dasharray:none"
       d="m 155.15127,226.89651 59.7096,-50.09532"
       inkscape:connector-curvature="0" />
    <path
       id="path4143"
       style="fill:none;stroke:#000000;stroke-width:0.08858268;stroke-linecap:round;stroke-linejoin:round;stroke-miterlimit:10;stroke-opacity:1;stroke-dasharray:none"
       d="m 77.212467,226.89651 77.938803,0"
       inkscape:connector-curvature="0" />
    <path
       id="path4145"
       style="fill:none;stroke:#000000;stroke-width:0.08858268;stroke-linecap:round;stroke-linejoin:round;stroke-miterlimit:10;stroke-opacity:1;stroke-dasharray:none"
       d="m 30.656307,173.25279 50.09976,50.10468"
       inkscape:connector-curvature="0" />
    <path
       id="path4147"
       style="fill:none;stroke:#000000;stroke-width:0.08858268;stroke-linecap:round;stroke-linejoin:round;stroke-miterlimit:10;stroke-opacity:1;stroke-dasharray:none"
       d="m 30.656307,102.39699 0,70.8558"
       inkscape:connector-curvature="0" />
    <path
       id="path4149"
       style="fill:none;stroke:#000000;stroke-width:0.08858268;stroke-linecap:round;stroke-linejoin:round;stroke-miterlimit:10;stroke-opacity:1;stroke-dasharray:none"
       d="m 80.756067,52.29699 -50.09976,50.1"
       inkscape:connector-curvature="0" />
    <path
       id="path4151"
       style="fill:none;stroke:#000000;stroke-width:0.08858268;stroke-linecap:round;stroke-linejoin:round;stroke-miterlimit:10;stroke-opacity:1;stroke-dasharray:none"
       d="m 151.61247,52.29699 -70.856403,0"
       inkscape:connector-curvature="0" />
    <path
       id="path4153"
       style="fill:none;stroke:#000000;stroke-width:0.08858268;stroke-linecap:round;stroke-linejoin:round;stroke-miterlimit:10;stroke-opacity:1;stroke-dasharray:none"
       d="m 201.71247,102.39699 -50.1,-50.1"
       inkscape:connector-curvature="0" />
    <path
       id="path4155"
       style="fill:none;stroke:#000000;stroke-width:0.08858268;stroke-linecap:round;stroke-linejoin:round;stroke-miterlimit:10;stroke-opacity:1;stroke-dasharray:none"
       d="m 201.71247,173.25279 0,-70.8558"
       inkscape:connector-curvature="0" />
    <path
       id="path4157"
       style="fill:none;stroke:#000000;stroke-width:0.08858268;stroke-linecap:round;stroke-linejoin:round;stroke-miterlimit:10;stroke-opacity:1;stroke-dasharray:none"
       d="m 151.61247,223.35747 50.1,-50.10468"
       inkscape:connector-curvature="0" />
    <path
       id="path4159"
       style="fill:none;stroke:#000000;stroke-width:0.08858268;stroke-linecap:round;stroke-linejoin:round;stroke-miterlimit:10;stroke-opacity:1;stroke-dasharray:none"
       d="m 80.756067,223.35747 70.856403,0"
       inkscape:connector-curvature="0" />
    <path
       id="path4161"
       style="fill:none;stroke:#000000;stroke-width:0.08858268;stroke-linecap:round;stroke-linejoin:round;stroke-miterlimit:10;stroke-opacity:1;stroke-dasharray:none"
       d="m 44.540667,169.95747 39.759,49.85616"
       inkscape:connector-curvature="0" />
    <path
       id="path4163"
       style="fill:none;stroke:#000000;stroke-width:0.08858268;stroke-linecap:round;stroke-linejoin:round;stroke-miterlimit:10;stroke-opacity:1;stroke-dasharray:none"
       d="m 58.729707,107.78739 -14.18904,62.17008"
       inkscape:connector-curvature="0" />
    <path
       id="path4165"
       style="fill:none;stroke:#000000;stroke-width:0.08858268;stroke-linecap:round;stroke-linejoin:round;stroke-miterlimit:10;stroke-opacity:1;stroke-dasharray:none"
       d="m 116.18487,80.11659 -57.455163,27.6708"
       inkscape:connector-curvature="0" />
    <path
       id="path4167"
       style="fill:none;stroke:#000000;stroke-width:0.08858268;stroke-linecap:round;stroke-linejoin:round;stroke-miterlimit:10;stroke-opacity:1;stroke-dasharray:none"
       d="m 173.63847,107.78739 -57.4536,-27.6708"
       inkscape:connector-curvature="0" />
    <path
       id="path4169"
       style="fill:none;stroke:#000000;stroke-width:0.08858268;stroke-linecap:round;stroke-linejoin:round;stroke-miterlimit:10;stroke-opacity:1;stroke-dasharray:none"
       d="m 187.82847,169.95747 -14.19,-62.17008"
       inkscape:connector-curvature="0" />
    <path
       id="path4171"
       style="fill:none;stroke:#000000;stroke-width:0.08858268;stroke-linecap:round;stroke-linejoin:round;stroke-miterlimit:10;stroke-opacity:1;stroke-dasharray:none"
       d="m 148.06887,219.81363 39.7596,-49.85616"
       inkscape:connector-curvature="0" />
    <path
       id="path4173"
       style="fill:none;stroke:#000000;stroke-width:0.08858268;stroke-linecap:round;stroke-linejoin:round;stroke-miterlimit:10;stroke-opacity:1;stroke-dasharray:none"
       d="m 84.299667,219.81363 63.769203,0"
       inkscape:connector-curvature="0" />
    <path
       id="path4175"
       style="fill:none;stroke:#000000;stroke-width:0.08858268;stroke-linecap:round;stroke-linejoin:round;stroke-miterlimit:10;stroke-opacity:1;stroke-dasharray:none"
       d="m 59.498427,167.18247 28.34004,49.08744"
       inkscape:connector-curvature="0" />
    <path
       id="path4177"
       style="fill:none;stroke:#000000;stroke-width:0.08858268;stroke-linecap:round;stroke-linejoin:round;stroke-miterlimit:10;stroke-opacity:1;stroke-dasharray:none"
       d="m 87.838467,118.09059 -28.34004,49.09188"
       inkscape:connector-curvature="0" />
    <path
       id="path4179"
       style="fill:none;stroke:#000000;stroke-width:0.08858268;stroke-linecap:round;stroke-linejoin:round;stroke-miterlimit:10;stroke-opacity:1;stroke-dasharray:none"
       d="m 144.52527,118.09059 -56.686803,0"
       inkscape:connector-curvature="0" />
    <path
       id="path4181"
       style="fill:none;stroke:#000000;stroke-width:0.08858268;stroke-linecap:round;stroke-linejoin:round;stroke-miterlimit:10;stroke-opacity:1;stroke-dasharray:none"
       d="m 172.86567,167.18247 -28.3404,-49.09188"
       inkscape:connector-curvature="0" />
    <path
       id="path4183"
       style="fill:none;stroke:#000000;stroke-width:0.08858268;stroke-linecap:round;stroke-linejoin:round;stroke-miterlimit:10;stroke-opacity:1;stroke-dasharray:none"
       d="m 144.52527,216.26991 28.3404,-49.08744"
       inkscape:connector-curvature="0" />
    <path
       id="path4185"
       style="fill:none;stroke:#000000;stroke-width:0.08858268;stroke-linecap:round;stroke-linejoin:round;stroke-miterlimit:10;stroke-opacity:1;stroke-dasharray:none"
       d="m 87.838467,216.26991 56.686803,0"
       inkscape:connector-curvature="0" />
    <path
       id="path4187"
       style="fill:none;stroke:#000000;stroke-width:0.08858268;stroke-linecap:round;stroke-linejoin:round;stroke-miterlimit:10;stroke-opacity:1;stroke-dasharray:none"
       d="m 76.059267,165.55587 15.324,47.17032"
       inkscape:connector-curvature="0" />
    <path
       id="path4189"
       style="fill:none;stroke:#000000;stroke-width:0.08858268;stroke-linecap:round;stroke-linejoin:round;stroke-miterlimit:10;stroke-opacity:1;stroke-dasharray:none"
       d="M 116.18487,136.40379 76.059267,165.55587"
       inkscape:connector-curvature="0" />
    <path
       id="path4191"
       style="fill:none;stroke:#000000;stroke-width:0.08858268;stroke-linecap:round;stroke-linejoin:round;stroke-miterlimit:10;stroke-opacity:1;stroke-dasharray:none"
       d="m 156.30927,165.55587 -40.1244,-29.15208"
       inkscape:connector-curvature="0" />
    <path
       id="path4193"
       style="fill:none;stroke:#000000;stroke-width:0.08858268;stroke-linecap:round;stroke-linejoin:round;stroke-miterlimit:10;stroke-opacity:1;stroke-dasharray:none"
       d="m 140.98167,212.72619 15.3276,-47.17032"
       inkscape:connector-curvature="0" />
    <path
       id="path4195"
       style="fill:none;stroke:#000000;stroke-width:0.08858268;stroke-linecap:round;stroke-linejoin:round;stroke-miterlimit:10;stroke-opacity:1;stroke-dasharray:none"
       d="m 91.383267,212.72619 49.598403,0"
       inkscape:connector-curvature="0" />
    <path
       id="path4197"
       style="fill:none;stroke:#000000;stroke-width:0.08858268;stroke-linecap:round;stroke-linejoin:round;stroke-miterlimit:10;stroke-opacity:1;stroke-dasharray:none"
       d="m 94.926867,166.67151 0,42.51096"
       inkscape:connector-curvature="0" />
    <path
       id="path4199"
       style="fill:none;stroke:#000000;stroke-width:0.08858268;stroke-linecap:round;stroke-linejoin:round;stroke-miterlimit:10;stroke-opacity:1;stroke-dasharray:none"
       d="m 137.43807,166.67151 -42.511203,0"
       inkscape:connector-curvature="0" />
    <path
       id="path4201"
       style="fill:none;stroke:#000000;stroke-width:0.08858268;stroke-linecap:round;stroke-linejoin:round;stroke-miterlimit:10;stroke-opacity:1;stroke-dasharray:none"
       d="m 137.43807,209.18247 0,-42.51096"
       inkscape:connector-curvature="0" />
    <path
       id="path4203"
       style="fill:none;stroke:#000000;stroke-width:0.08858268;stroke-linecap:round;stroke-linejoin:round;stroke-miterlimit:10;stroke-opacity:1;stroke-dasharray:none"
       d="m 94.926867,209.18247 42.511203,0"
       inkscape:connector-curvature="0" />
    <path
       id="path4205"
       style="fill:none;stroke:#000000;stroke-width:0.08858268;stroke-linecap:round;stroke-linejoin:round;stroke-miterlimit:10;stroke-opacity:1;stroke-dasharray:none"
       d="M 116.18487,174.95895 98.470467,205.64343"
       inkscape:connector-curvature="0" />
    <path
       id="path4207"
       style="fill:none;stroke:#000000;stroke-width:0.08858268;stroke-linecap:round;stroke-linejoin:round;stroke-miterlimit:10;stroke-opacity:1;stroke-dasharray:none"
       d="m 133.89807,205.64343 -17.7132,-30.68448"
       inkscape:connector-curvature="0" />
    <path
       id="path4209"
       style="fill:none;stroke:#000000;stroke-width:0.08858268;stroke-linecap:round;stroke-linejoin:round;stroke-miterlimit:10;stroke-opacity:1;stroke-dasharray:none"
       d="m 98.470467,205.64343 35.427603,0"
       inkscape:connector-curvature="0" />
  </g>
</svg>

<?xml version="1.0" encoding="UTF-8" standalone="no"?>
<!-- Created with Inkscape (http://www.inkscape.org/) -->

<svg
   xmlns:dc="http://purl.org/dc/elements/1.1/"
   xmlns:cc="http://creativecommons.org/ns#"
   xmlns:rdf="http://www.w3.org/1999/02/22-rdf-syntax-ns#"
   xmlns:svg="http://www.w3.org/2000/svg"
   xmlns="http://www.w3.org/2000/svg"
   xmlns:sodipodi="http://sodipodi.sourceforge.net/DTD/sodipodi-0.dtd"
   xmlns:inkscape="http://www.inkscape.org/namespaces/inkscape"
   viewBox="0 0 3240 2160"
   height="24in"
   width="36in"
   id="svg3110"
   version="1.1"
   inkscape:version="0.48.1 r9760"
   sodipodi:docname="New document 4">
  <sodipodi:namedview
     pagecolor="#ffffff"
     bordercolor="#666666"
     borderopacity="1"
     objecttolerance="10"
     gridtolerance="10"
     guidetolerance="10"
     inkscape:pageopacity="0"
     inkscape:pageshadow="2"
     inkscape:window-width="638"
     inkscape:window-height="779"
     id="namedview3116"
     showgrid="false"
     inkscape:zoom="0.12916667"
     inkscape:cx="1620"
     inkscape:cy="1080"
     inkscape:window-x="0"
     inkscape:window-y="19"
     inkscape:window-maximized="0"
     inkscape:current-layer="layer1" />
  <defs
     id="defs3" />
  <metadata
     id="metadata3113">
    <rdf:RDF>
      <cc:Work
         rdf:about="">
        <dc:format>image/svg+xml</dc:format>
        <dc:type
           rdf:resource="http://purl.org/dc/dcmitype/StillImage" />
        <dc:title></dc:title>
      </cc:Work>
    </rdf:RDF>
  </metadata>
  <g
     inkscape:label="Layer 1"
     inkscape:groupmode="layer"
     id="layer1">
    <g
       transform="translate(0,5e-4)"
       style="fill:none;stroke:#000000;stroke-width:0.08858268;stroke-linecap:round;stroke-linejoin:round;stroke-miterlimit:10;stroke-dasharray:none"
       id="layer1-3"
       stroke-miterlimit="10">
      <path
         inkscape:connector-curvature="0"
         id="path4127"
         d="M 17.507,176.8 77.212,226.9" />
      <path
         inkscape:connector-curvature="0"
         id="path4129"
         d="M 3.9745,100.04 17.507,176.8" />
      <path
         inkscape:connector-curvature="0"
         id="path4131"
         d="M 42.942,32.545 3.9745,100.04" />
      <path
         inkscape:connector-curvature="0"
         id="path4133"
         d="M 116.18,5.8867 42.942,32.545" />
      <path
         inkscape:connector-curvature="0"
         id="path4135"
         d="M 189.42,32.545 116.18,5.8867" />
      <path
         inkscape:connector-curvature="0"
         id="path4137"
         d="M 228.39,100.04 189.42,32.545" />
      <path
         inkscape:connector-curvature="0"
         id="path4139"
         d="M 214.86,176.8 228.39,100.04" />
      <path
         inkscape:connector-curvature="0"
         id="path4141"
         d="M 155.15,226.9 214.86,176.8" />
      <path
         inkscape:connector-curvature="0"
         id="path4143"
         d="M 77.212,226.9 155.15,226.9" />
      <path
         inkscape:connector-curvature="0"
         id="path4145"
         d="M 30.656,173.25 80.755,223.36" />
      <path
         inkscape:connector-curvature="0"
         id="path4147"
         d="M 30.656,102.4 30.656,173.25" />
      <path
         inkscape:connector-curvature="0"
         id="path4149"
         d="M 80.755,52.298 30.656,102.4" />
      <path
         inkscape:connector-curvature="0"
         id="path4151"
         d="M 151.61,52.298 80.755,52.298" />
      <path
         inkscape:connector-curvature="0"
         id="path4153"
         d="M 201.71,102.4 151.61,52.298" />
      <path
         inkscape:connector-curvature="0"
         id="path4155"
         d="M 201.71,173.25 201.71,102.4" />
      <path
         inkscape:connector-curvature="0"
         id="path4157"
         d="M 151.61,223.36 201.71,173.25" />
      <path
         inkscape:connector-curvature="0"
         id="path4159"
         d="M 80.755,223.36 151.61,223.36" />
      <path
         inkscape:connector-curvature="0"
         id="path4161"
         d="M 44.54,169.96 84.299,219.81" />
      <path
         inkscape:connector-curvature="0"
         id="path4163"
         d="M 58.729,107.79 44.54,169.96" />
      <path
         inkscape:connector-curvature="0"
         id="path4165"
         d="M 116.18,80.117 58.729,107.79" />
      <path
         inkscape:connector-curvature="0"
         id="path4167"
         d="M 173.64,107.79 116.18,80.117" />
      <path
         inkscape:connector-curvature="0"
         id="path4169"
         d="M 187.83,169.96 173.64,107.79" />
      <path
         inkscape:connector-curvature="0"
         id="path4171"
         d="M 148.07,219.81 187.83,169.96" />
      <path
         inkscape:connector-curvature="0"
         id="path4173"
         d="M 84.299,219.81 148.07,219.81" />
      <path
         inkscape:connector-curvature="0"
         id="path4175"
         d="M 59.498,167.18 87.838,216.27" />
      <path
         inkscape:connector-curvature="0"
         id="path4177"
         d="M 87.838,118.09 59.498,167.18" />
      <path
         inkscape:connector-curvature="0"
         id="path4179"
         d="M 144.52,118.09 87.838,118.09" />
      <path
         inkscape:connector-curvature="0"
         id="path4181"
         d="M 172.87,167.18 144.52,118.09" />
      <path
         inkscape:connector-curvature="0"
         id="path4183"
         d="M 144.52,216.27 172.87,167.18" />
      <path
         inkscape:connector-curvature="0"
         id="path4185"
         d="M 87.838,216.27 144.52,216.27" />
      <path
         inkscape:connector-curvature="0"
         id="path4187"
         d="M 76.059,165.56 91.383,212.73" />
      <path
         inkscape:connector-curvature="0"
         id="path4189"
         d="M 116.18,136.4 76.059,165.56" />
      <path
         inkscape:connector-curvature="0"
         id="path4191"
         d="M 156.31,165.56 116.18,136.4" />
      <path
         inkscape:connector-curvature="0"
         id="path4193"
         d="M 140.98,212.73 156.31,165.56" />
      <path
         inkscape:connector-curvature="0"
         id="path4195"
         d="M 91.383,212.73 140.98,212.73" />
      <path
         inkscape:connector-curvature="0"
         id="path4197"
         d="M 94.926,166.67 94.926,209.18" />
      <path
         inkscape:connector-curvature="0"
         id="path4199"
         d="M 137.44,166.67 94.926,166.67" />
      <path
         inkscape:connector-curvature="0"
         id="path4201"
         d="M 137.44,209.18 137.44,166.67" />
      <path
         inkscape:connector-curvature="0"
         id="path4203"
         d="M 94.926,209.18 137.44,209.18" />
      <path
         inkscape:connector-curvature="0"
         id="path4205"
         d="M 116.18,174.96 98.47,205.64" />
      <path
         inkscape:connector-curvature="0"
         id="path4207"
         d="M 133.9,205.64 116.18,174.96" />
      <path
         inkscape:connector-curvature="0"
         id="path4209"
         d="M 98.47,205.64 133.9,205.64" />
    </g>
  </g>
</svg>
